Hatter-kde/actions/16/meeting-attending-tentative.svg

<svg xmlns="http://www.w3.org/2000/svg" viewBox="0 0 16 16">
  <defs id="defs3051">
    <style type="text/css" id="current-color-scheme">
      .ColorScheme-Text {
        color:#363636;
      }
      </style>
  </defs>
 <path style="fill:currentColor;fill-opacity:0.5;stroke:none" 
     d="M 11.5 2 A 2.5 2.5 0 0 0 9 4.5 A 2.5 2.5 0 0 0 11.5 7 A 2.5 2.5 0 0 0 14 4.5 A 2.5 2.5 0 0 0 11.5 2 z M 5.5 4 A 2.5 2.5 0 0 0 3 6.5 A 2.5 2.5 0 0 0 5.5 9 A 2.5 2.5 0 0 0 8 6.5 A 2.5 2.5 0 0 0 5.5 4 z M 11.646484 8 A 3.4999979 4 0 0 0 8.4921875 10.273438 A 4.5 5 0 0 1 9.6171875 12 L 14.146484 12 L 15.146484 12 A 3.4999979 4 0 0 0 11.646484 8 z M 11.646484 9 A 2.5 3 0 0 1 14 11 L 9.2929688 11 A 2.5 3 0 0 1 11.646484 9 z M 5.5 10 A 3.4999979 4 0 0 0 2 14 L 3 14 L 8 14 L 9 14 A 3.4999979 4 0 0 0 5.5 10 z M 5.5 11 A 2.5 3 0 0 1 7.8535156 13 L 3.1464844 13 A 2.5 3 0 0 1 5.5 11 z "
     class="ColorScheme-Text"
     />
</svg>

<?xml version="1.0" encoding="UTF-8"?>
<svg viewBox="0 0 16 16" xmlns="http://www.w3.org/2000/svg">
 <defs id="defs3051">
  <style id="current-color-scheme" type="text/css">.ColorScheme-Text {
        color:#363636;
      }</style>
 </defs>
 <path class="ColorScheme-Text" d="m11.5 2a2.5 2.5 0 0 0-2.5 2.5 2.5 2.5 0 0 0 2.5 2.5 2.5 2.5 0 0 0 2.5-2.5 2.5 2.5 0 0 0-2.5-2.5zm-6 2a2.5 2.5 0 0 0-2.5 2.5 2.5 2.5 0 0 0 2.5 2.5 2.5 2.5 0 0 0 2.5-2.5 2.5 2.5 0 0 0-2.5-2.5zm6.1465 4a3.5 4 0 0 0-3.1543 2.2734 4.5 5 0 0 1 1.125 1.7266h4.5293 1a3.5 4 0 0 0-3.5-4zm0 1a2.5 3 0 0 1 2.3535 2h-4.707a2.5 3 0 0 1 2.3535-2zm-6.1465 1a3.5 4 0 0 0-3.5 4h1 5 1a3.5 4 0 0 0-3.5-4zm0 1a2.5 3 0 0 1 2.3535 2h-4.707a2.5 3 0 0 1 2.3535-2z" fill="currentColor" fill-opacity=".5"/>
</svg>
